assets/img/icons/pay-transfer.svg

<svg width="24" height="24" viewBox="0 0 24 24" fill="none" xmlns="http://www.w3.org/2000/svg">
<path d="M17.4782 0.306043C16.5689 0.425619 15.6501 0.765949 15.2798 1.12008C15.0126 1.37762 14.9282 1.55699 14.9001 1.92031C14.8814 2.18706 14.8954 2.26524 14.9986 2.4768C15.1439 2.76654 15.2892 2.90911 15.6595 3.12527C16.6111 3.68635 18.6829 3.89791 20.3986 3.61277C21.9032 3.35982 22.672 2.81253 22.672 1.9893C22.672 1.19826 21.997 0.683166 20.5626 0.384228C20.2017 0.310642 19.897 0.287647 18.9689 0.278449C18.3361 0.269251 17.6657 0.283048 17.4782 0.306043Z" fill="white"/>
<path d="M6.32233 3.08339C4.8692 3.39153 3.7442 4.45851 3.35045 5.88882C3.26139 6.21995 3.25201 6.40851 3.22858 7.74224L3.20983 9.22773L2.87233 8.9104C2.5817 8.62985 2.5067 8.58386 2.31451 8.55627C2.02389 8.51488 1.69576 8.66665 1.5692 8.9012C1.46608 9.09436 1.46139 9.41169 1.55045 9.58186C1.58795 9.65084 2.06608 10.1429 2.6192 10.681C4.03483 12.0607 3.90358 12.0607 5.32389 10.681C5.87233 10.1429 6.35045 9.64165 6.38795 9.55886C6.62701 9.01617 6.16295 8.44589 5.57233 8.55627C5.44576 8.57926 5.30983 8.67584 5.03326 8.93799L4.66295 9.29212L4.6817 7.86641C4.70514 6.25674 4.73795 6.09117 5.08483 5.56228C5.39889 5.09318 5.82076 4.76205 6.34108 4.56889C6.60826 4.47231 6.70201 4.46771 8.77389 4.44011L10.9301 4.41712L11.0848 4.31134C11.3098 4.15037 11.3895 3.96641 11.3661 3.65367C11.3426 3.36393 11.2442 3.20757 10.9911 3.07879C10.8083 2.98681 6.75826 2.99141 6.32233 3.08339Z" fill="white"/>
<path d="M14.8905 5.30926V6.36244L15.0452 6.45442C15.2702 6.59239 15.8655 6.81315 16.2827 6.91893C17.1171 7.13048 17.5343 7.17188 18.7812 7.17188C19.8218 7.17188 20.0562 7.15808 20.5859 7.0661C21.2843 6.94652 21.7905 6.79935 22.3109 6.5694L22.6718 6.40383V5.32765C22.6718 4.73438 22.6577 4.25607 22.639 4.26527C21.6874 4.73897 20.9327 4.94133 19.6859 5.04251C18.5515 5.13449 17.2343 5.03791 16.264 4.78037C15.8327 4.66999 15.228 4.43544 15.0546 4.32046C15.003 4.28367 14.9468 4.25607 14.928 4.25607C14.9046 4.25607 14.8905 4.72978 14.8905 5.30926Z" fill="white"/>
<path d="M14.8905 8.40435C14.8905 8.79067 14.914 9.18619 14.9374 9.27817C15.0124 9.53112 15.3968 9.91744 15.7671 10.1106C16.4655 10.4647 17.1874 10.6027 18.5234 10.6349C19.2687 10.6533 19.6484 10.6395 20.0749 10.5843C21.378 10.4187 22.264 10.0094 22.5499 9.44374C22.6671 9.21839 22.6718 9.1678 22.6718 8.45954V7.7099L22.2359 7.91226C21.4062 8.29858 20.4593 8.48714 19.1515 8.51933C17.5015 8.56532 16.1984 8.34917 15.2093 7.86167L14.8905 7.7053V8.40435Z" fill="white"/>
<path d="M18.4766 12.4146C18.2891 12.502 16.4094 14.36 16.3438 14.5256C16.1375 15.0728 16.6203 15.6201 17.1969 15.5006C17.3 15.4776 17.4735 15.3488 17.7172 15.1142L18.0875 14.7647L18.0688 16.1904C18.05 17.4919 18.036 17.6437 17.9469 17.9197C17.75 18.5083 17.2344 19.1108 16.7047 19.3592C16.1891 19.6075 16.0625 19.6167 13.9063 19.6167C12.0547 19.6167 11.9 19.6213 11.75 19.7041C11.2578 19.957 11.2391 20.6653 11.7125 20.9504C11.8625 21.0424 11.9282 21.0424 14.1172 21.0332L16.3672 21.0194L16.8125 20.8723C17.8391 20.5319 18.6313 19.8605 19.0907 18.9498C19.4657 18.2048 19.4938 18.0162 19.5219 16.3146L19.5407 14.8291L19.8782 15.1464C20.1641 15.4178 20.2485 15.473 20.4266 15.5006C20.6938 15.5373 20.9938 15.427 21.1297 15.2384C21.2422 15.0866 21.2938 14.7739 21.2469 14.5715C21.2047 14.4106 19.2922 12.5066 19.0766 12.4146C18.8891 12.3364 18.6594 12.3364 18.4766 12.4146Z" fill="white"/>
<path d="M2.59062 13.4775C2.01406 13.5557 1.38125 13.735 1.00156 13.919C0.364062 14.2271 0.078125 14.6088 0.078125 15.1515C0.078125 15.7034 0.382812 16.0805 1.09062 16.4071C2.525 17.0647 5.42187 17.0601 6.85156 16.3979C7.31562 16.1863 7.58281 15.961 7.7375 15.6528C7.9625 15.2067 7.89219 14.7468 7.53125 14.3605C7.15625 13.9604 6.54687 13.689 5.62344 13.5189C5.05156 13.4131 3.22812 13.3901 2.59062 13.4775Z" fill="white"/>
<path d="M0.0780487 18.4808V19.557L0.443674 19.7226C1.13274 20.0353 1.86867 20.2147 2.86711 20.3112C3.64992 20.3848 5.10305 20.3388 5.80617 20.2193C6.42492 20.1135 7.25461 19.8605 7.60148 19.672L7.83586 19.5478L7.84992 18.4762C7.85461 17.8921 7.85461 17.4092 7.84055 17.4092C7.83117 17.4092 7.72805 17.4598 7.61086 17.5242C5.93274 18.444 2.22024 18.467 0.396799 17.5656L0.0780487 17.4092V18.4808Z" fill="white"/>
<path d="M0.078125 21.6085C0.078125 22.3259 0.0828125 22.3673 0.2 22.6019C0.457812 23.1124 1.15625 23.4757 2.30469 23.6965C2.91406 23.816 5.02344 23.816 5.63281 23.6965C6.72031 23.4849 7.475 23.094 7.75156 22.5973C7.82187 22.4731 7.84062 22.3075 7.85 21.6499L7.86875 20.8542L7.53125 21.0198C6.65937 21.4521 5.72187 21.6407 4.28281 21.6729C2.59531 21.7143 1.38125 21.5119 0.396875 21.0198L0.078125 20.8634V21.6085Z" fill="white"/>
</svg>

<svg width="24" height="24" fill="none" xmlns="http://www.w3.org/2000/svg"><path d="M17.478.306c-.91.12-1.828.46-2.198.814-.267.258-.352.437-.38.8-.019.267-.005.345.099.557.145.29.29.432.66.648.952.561 3.024.773 4.74.488 1.504-.253 2.273-.8 2.273-1.624 0-.79-.675-1.306-2.11-1.605-.36-.073-.665-.096-1.593-.106-.633-.009-1.303.005-1.49.028ZM6.322 3.083A3.897 3.897 0 0 0 3.35 5.89c-.089.33-.098.52-.121 1.853l-.02 1.486-.337-.318c-.29-.28-.365-.326-.557-.354-.291-.041-.62.11-.746.345-.103.193-.108.51-.019.68.038.07.516.562 1.07 1.1 1.415 1.38 1.284 1.38 2.704 0 .548-.538 1.026-1.04 1.064-1.122a.725.725 0 0 0-.816-1.003c-.126.023-.262.12-.539.382l-.37.354.019-1.426c.023-1.61.056-1.775.403-2.304.314-.469.736-.8 1.256-.993.267-.097.361-.101 2.433-.129l2.156-.023.155-.106c.225-.16.304-.345.281-.657-.023-.29-.122-.446-.375-.575-.183-.092-4.233-.088-4.669.004ZM14.89 5.31v1.052l.155.092c.225.138.82.36 1.238.465.834.211 1.251.253 2.498.253 1.04 0 1.275-.014 1.805-.106.698-.12 1.205-.267 1.725-.497l.36-.165V5.328c0-.594-.013-1.072-.032-1.063-.952.474-1.706.676-2.953.778-1.134.091-2.452-.005-3.422-.263-.431-.11-1.036-.345-1.21-.46a.357.357 0 0 0-.126-.064c-.023 0-.038.474-.038 1.053Zm0 3.094c0 .387.024.782.047.874.075.253.46.64.83.833.698.354 1.42.492 2.756.524.746.018 1.125.005 1.552-.05 1.303-.166 2.189-.576 2.475-1.141.117-.226.122-.276.122-.984v-.75l-.436.202c-.83.387-1.777.575-3.085.607-1.65.046-2.953-.17-3.942-.657l-.319-.157v.7Zm3.587 4.011c-.188.087-2.068 1.945-2.133 2.11-.207.548.276 1.095.853.976.103-.023.277-.152.52-.387l.37-.35-.018 1.426c-.019 1.302-.033 1.454-.122 1.73-.197.588-.713 1.19-1.242 1.44-.516.248-.642.257-2.799.257-1.851 0-2.006.004-2.156.087-.492.253-.51.961-.037 1.246.15.092.215.092 2.404.083l2.25-.014.445-.147c1.027-.34 1.82-1.012 2.279-1.922.375-.745.403-.934.43-2.635l.02-1.486.337.317c.286.272.37.327.549.355.267.036.567-.074.703-.263.112-.151.164-.464.117-.666-.042-.161-1.955-2.065-2.17-2.157a.797.797 0 0 0-.6 0ZM2.59 13.477c-.576.079-1.209.258-1.588.442-.638.308-.924.69-.924 1.232 0 .552.305.93 1.013 1.256 1.434.658 4.33.653 5.76-.01.465-.21.732-.436.886-.744.226-.446.155-.906-.206-1.293-.375-.4-.984-.671-1.908-.841-.571-.106-2.395-.129-3.032-.042ZM.078 18.48v1.077l.366.166c.689.312 1.425.492 2.423.588.783.074 2.236.028 2.94-.092.618-.106 1.448-.359 1.794-.547l.235-.124.014-1.072c.005-.584.005-1.067-.01-1.067-.009 0-.112.05-.23.115-1.677.92-5.39.943-7.213.042l-.319-.157v1.072Zm0 3.128c0 .718.005.76.122.994.258.51.956.874 2.105 1.095.61.119 2.718.119 3.328 0 1.087-.212 1.842-.603 2.119-1.1.07-.124.089-.29.098-.947l.019-.796-.338.166c-.872.432-1.81.62-3.248.653-1.688.041-2.902-.161-3.886-.653l-.319-.157v.745Z" fill="#fff"/></svg>
